svgs/sharp-regular/square-sliders-vertical.svg

<svg xmlns="http://www.w3.org/2000/svg" viewBox="0 0 448 512"><!--! Font Awesome Pro 6.6.0 by @fontawesome - https://fontawesome.com License - https://fontawesome.com/license (Commercial License) Copyright 2024 Fonticons, Inc. --><path d="M400 80l0 352L48 432 48 80l352 0zM48 32L0 32 0 80 0 432l0 48 48 0 352 0 48 0 0-48 0-352 0-48-48 0L48 32zm120 96l-48 0 0 24 0 32-16 0-24 0 0 48 24 0 16 0 0 128 0 24 48 0 0-24 0-128 16 0 24 0 0-48-24 0-16 0 0-32 0-24zm160 24l0-24-48 0 0 24 0 128-16 0-24 0 0 48 24 0 16 0 0 32 0 24 48 0 0-24 0-32 16 0 24 0 0-48-24 0-16 0 0-128z"/></svg>

<svg xmlns="http://www.w3.org/2000/svg" viewBox="0 0 448 512"><!--! Font Awesome Pro 6.4.2 by @fontawesome - https://fontawesome.com License - https://fontawesome.com/license (Commercial License) Copyright 2023 Fonticons, Inc. --><path d="M400 80V432H48V80H400zM48 32H0V80 432v48H48 400h48V432 80 32H400 48zm120 96H120v24 32H104 80v48h24 16V360v24h48V360 232h16 24V184H184 168V152 128zm160 24V128H280v24V280H264 240v48h24 16v32 24h48V360 328h16 24V280H344 328V152z"/></svg>
